X:1
T:Title
L:1/8
M:6/8
K:Eb
V:1 treble nm="Grand Piano"
V:1
 z3[Q:1/4=140] G3 | c3- c2 c | c2 B A2 G | A6- | A3 A3 | F3 G3 | A3- A2 B | A3 G3- | G3 G3 | %9
 B3- B2 =A | B2 _d c2 G | A6- | A3 A2 G | F3 E3 | D3- D2 E |[M:9/8] D3 C6 |[M:6/8] z2 G _G2 =G | %17
 c3 G3 | B3 =A3 | A6- | A2 F G2 A | G3 E3 | G3 _G3 | F6- | F2 F D2 D | =B,3 A3 | F3 E3 | D6- | %28
 D2 D E2 F | B3 A3 | G6- | G6- | G2 G _G2 =G | B3 G3 | B3 =A3 | A6- | A2 F G2 A | G3 A3 | G3 E3 | %39
 F6- | F2 F D2 C | B,3 A3 | F3 E3 | D6- | D2 D E2 F | B3 A3 | G6- | G6- | G2 G =A2 =B | c3 d3 | %50
 c6- | c3 z3 |] %52

